/* XPM */
static char *scrollbar_vertical_grip[] = {
"14 34 2 1",
"  c None",
". c #FFFFFF",
"              ",
"              ",
"    ......    ",
"              ",
"              ",
"    ......    ",
"              ",
"              ",
"    ......    ",
"              ",
"              ",
"    ......    ",
"              ",
"              ",
"    ......    ",
"              ",
"              ",
"    ......    ",
"              ",
"              ",
"    ......    ",
"              ",
"              ",
"    ......    ",
"              ",
"              ",
"    ......    ",
"              ",
"              ",
"    ......    ",
"              ",
"              ",
"              ",
"              "
};
