/* XPM */
static char *scrollbar_horizontal_grip[] = {
"34 14 2 1",
"  c None",
". c #FFFFFF",
"                                  ",
"                                  ",
"  ..  ..  ..  ..  ..  ..  ..     ",
"  ..  ..  ..  ..  ..  ..  ..     ",
"                                  ",
"                                  ",
"                                  ",
"                                  ",
"                                  ",
"                                  ",
"  ..  ..  ..  ..  ..  ..  ..     ",
"  ..  ..  ..  ..  ..  ..  ..     ",
"                                  ",
"                                  "
};
