/* XPM */
static char *splitter_vertical_grip[] = {
"12 48 2 1",
"  c None",
". c #FFFFFF",
"            ",
"            ",
"            ",
"     ..     ",
"     ..     ",
"            ",
"            ",
"     ..     ",
"     ..     ",
"            ",
"            ",
"     ..     ",
"     ..     ",
"            ",
"            ",
"     ..     ",
"     ..     ",
"            ",
"            ",
"     ..     ",
"     ..     ",
"            ",
"            ",
"     ..     ",
"     ..     ",
"            ",
"            ",
"     ..     ",
"     ..     ",
"            ",
"            ",
"     ..     ",
"     ..     ",
"            ",
"            ",
"     ..     ",
"     ..     ",
"            ",
"            ",
"     ..     ",
"     ..     ",
"            ",
"            ",
"            ",
"            ",
"            ",
"            ",
"            "
};
